public/images/base/phone.svg

<svg width="16" height="16" viewBox="0 0 16 16" fill="none" xmlns="http://www.w3.org/2000/svg">
<path d="M11.0441 14.666H11.0627C11.4147 14.666 11.7474 14.5274 11.9994 14.2754L13.8074 12.4674C13.8694 12.4055 13.9185 12.332 13.9521 12.2512C13.9856 12.1703 14.0029 12.0836 14.0029 11.996C14.0029 11.9085 13.9856 11.8218 13.9521 11.7409C13.9185 11.66 13.8694 11.5866 13.8074 11.5247L11.1407 8.85804C11.0789 8.79608 11.0054 8.74692 10.9245 8.71338C10.8436 8.67984 10.757 8.66257 10.6694 8.66257C10.5818 8.66257 10.4951 8.67984 10.4143 8.71338C10.3334 8.74692 10.2599 8.79608 10.1981 8.85804L9.1354 9.92071C8.64273 9.77404 7.7234 9.44071 7.14073 8.85804C6.55806 8.27537 6.22473 7.35604 6.07806 6.86337L7.14073 5.80071C7.20269 5.73885 7.25185 5.66538 7.28539 5.5845C7.31893 5.50363 7.3362 5.41693 7.3362 5.32937C7.3362 5.24182 7.31893 5.15512 7.28539 5.07425C7.25185 4.99337 7.20269 4.9199 7.14073 4.85804L4.47406 2.19137C4.34661 2.07108 4.17799 2.00406 4.00273 2.00406C3.82747 2.00406 3.65885 2.07108 3.5314 2.19137L1.72406 3.99937C1.47073 4.25271 1.32806 4.60071 1.3334 4.95604C1.34873 5.90537 1.60006 9.20271 4.19873 11.8014C6.7974 14.4 10.0947 14.6507 11.0441 14.666ZM4.0034 3.60537L5.7274 5.32937L4.8654 6.19137C4.78695 6.2696 4.72933 6.36621 4.69777 6.47241C4.66622 6.5786 4.66173 6.691 4.68473 6.79937C4.70073 6.87604 5.09206 8.69404 6.19873 9.80071C7.3054 10.9074 9.1234 11.2987 9.20006 11.3147C9.30843 11.3378 9.42087 11.3334 9.52708 11.3018C9.6333 11.2703 9.72991 11.2126 9.80806 11.134L10.6701 10.272L12.3941 11.996L11.0567 13.3327C10.2247 13.3187 7.37806 13.0954 5.1414 10.858C2.8974 8.61404 2.68006 5.75737 2.66673 4.94204L4.0034 3.60537ZM13.3327 7.33271H14.6661C14.6661 3.91271 12.0841 1.33337 8.6594 1.33337V2.66671C11.3674 2.66671 13.3327 4.62871 13.3327 7.33271Z" fill="white"/>
<path d="M8.66602 5.33333C10.068 5.33333 10.666 5.93133 10.666 7.33333H11.9993C11.9993 5.18333 10.816 4 8.66602 4V5.33333Z" fill="white"/>
</svg>

<svg width="16" height="16" fill="none" xmlns="http://www.w3.org/2000/svg"><path d="M11.044 14.666h.019c.352 0 .684-.139.936-.39l1.808-1.809a.668.668 0 000-.942l-2.666-2.667a.665.665 0 00-.943 0L9.135 9.921c-.492-.147-1.412-.48-1.994-1.063-.583-.583-.916-1.502-1.063-1.995l1.063-1.062a.666.666 0 000-.943L4.474 2.191a.687.687 0 00-.943 0L1.724 4a1.332 1.332 0 00-.39.957c.015.95.266 4.247 2.865 6.845 2.598 2.599 5.896 2.85 6.845 2.865zm-7.04-11.06l1.723 1.723-.862.862a.664.664 0 00-.18.608c.016.077.407 1.895 1.514 3.002 1.106 1.106 2.924 1.498 3.001 1.514a.662.662 0 00.608-.181l.862-.862 1.724 1.724-1.337 1.337c-.832-.014-3.679-.238-5.916-2.475-2.244-2.244-2.46-5.1-2.474-5.916l1.336-1.337zm9.329 3.727h1.333c0-3.42-2.582-6-6.007-6v1.334c2.708 0 4.674 1.962 4.674 4.666z" fill="#fff"/><path d="M8.666 5.333c1.402 0 2 .598 2 2h1.333C12 5.183 10.816 4 8.666 4v1.333z" fill="#fff"/></svg>
